X:1
T:Danny Boy (Londonderry Air)
C:Traditional Irish; lyrics F.E. Weatherly, 1913
M:4/4
L:1/8
Q:1/4=72
K:C
|: G4 E2 G2 | c6 B2 | A2 G2 E4 | D8 |
   G4 E2 G2 | c4 e4 | d4 c4 | G8 |
   G4 A2 c2 | e4 d2 c2 | e2 d2 c2 B2 | A8 |
   A2 B2 c2 d2 | e4 d2 c2 | B2 G2 A2 B2 | c8 :|
